static/img/general/features-icon-9.svg

<svg width="30" height="45" viewBox="0 0 30 45" fill="none" xmlns="http://www.w3.org/2000/svg">
<path d="M25.5204 44.9458H4.54565C2.4779 44.9434 0.802449 43.2679 0.800049 41.2002V3.7456C0.802449 1.67786 2.4779 0.00239944 4.54565 0H25.5204C27.5878 0.00239944 29.2632 1.67786 29.2656 3.7456V41.2002C29.2632 43.2679 27.5878 44.9434 25.5204 44.9458V44.9458ZM2.29822 37.4549H27.7675V7.49085H2.29822V37.4549ZM4.54565 43.4476H25.5204C26.7614 43.4476 27.7675 42.4415 27.7675 41.2002V38.9531H2.29822V41.2002C2.29822 42.4415 3.30432 43.4476 4.54565 43.4476ZM25.5204 1.49817H4.54565C3.30432 1.49817 2.29822 2.50426 2.29822 3.7456V5.99268H27.7675V3.7456C27.7675 2.50426 26.7614 1.49817 25.5204 1.49817Z" fill="#E20E17"/>
<path d="M15.7821 4.49463H14.2839C13.87 4.49463 13.5347 4.15926 13.5347 3.74572C13.5347 3.33182 13.87 2.99646 14.2839 2.99646H15.7821C16.1956 2.99646 16.531 3.33182 16.531 3.74572C16.531 4.15926 16.1956 4.49463 15.7821 4.49463Z" fill="#E20E17"/>
<path d="M5.29457 40.4513H6.79274C7.20663 40.4513 7.542 40.7867 7.542 41.2002C7.542 41.6141 7.20663 41.9495 6.79274 41.9495H5.29457C4.88102 41.9495 4.54565 41.6141 4.54565 41.2002C4.54565 40.7867 4.88102 40.4513 5.29457 40.4513Z" fill="#E20E17"/>
<path d="M9.78895 40.4513H12.7853C13.1992 40.4513 13.5346 40.7867 13.5346 41.2002C13.5346 41.6141 13.1992 41.9495 12.7853 41.9495H9.78895C9.3754 41.9495 9.04004 41.6141 9.04004 41.2002C9.04004 40.7867 9.3754 40.4513 9.78895 40.4513Z" fill="#E20E17"/>
<path d="M7.54198 26.2184H10.5383C10.9519 26.2184 11.2872 26.5537 11.2872 26.9673V29.9636C11.2872 30.3775 10.9519 30.7129 10.5383 30.7129H7.54198C7.12809 30.7129 6.79272 30.3775 6.79272 29.9636V26.9673C6.79272 26.5537 7.12809 26.2184 7.54198 26.2184ZM8.2909 29.2147H9.78907V27.7165H8.2909V29.2147Z" fill="#E20E17"/>
<path d="M22.5239 30.7129H19.5272C19.1137 30.7129 18.7783 30.3775 18.7783 29.9636V26.9673C18.7783 26.5537 19.1137 26.2184 19.5272 26.2184H22.5239C22.9375 26.2184 23.2728 26.5537 23.2728 26.9673V29.9636C23.2728 30.3775 22.9375 30.7129 22.5239 30.7129ZM21.7747 27.7165H20.2765V29.2147H21.7747V27.7165Z" fill="#E20E17"/>
<path d="M10.5383 18.7273H7.54198C7.12809 18.7273 6.79272 18.3919 6.79272 17.9784V14.982C6.79272 14.5681 7.12809 14.2328 7.54198 14.2328H10.5383C10.9519 14.2328 11.2872 14.5681 11.2872 14.982V17.9784C11.2876 18.3919 10.9519 18.7273 10.5383 18.7273ZM9.78907 15.731H8.2909V17.2291H9.78907V15.731Z" fill="#E20E17"/>
<path d="M13.5346 29.2147H16.5309C16.9448 29.2147 17.2802 29.5501 17.2802 29.9636C17.2802 30.3775 16.9448 30.7129 16.5309 30.7129H13.5346C13.121 30.7129 12.7856 30.3775 12.7856 29.9636C12.7856 29.5501 13.121 29.2147 13.5346 29.2147Z" fill="#E20E17"/>
<path d="M7.54198 20.2255C7.95553 20.2255 8.2909 20.5608 8.2909 20.9747V22.4729H9.78907V21.7236C9.78907 21.3101 10.1244 20.9747 10.5383 20.9747C10.9519 20.9747 11.2872 21.3101 11.2872 21.7236V22.4729H13.5347C13.9486 22.4729 14.2839 22.8083 14.2839 23.2218C14.2839 23.6357 13.9486 23.9711 13.5347 23.9711H12.0365V24.7203C12.0365 25.1339 11.7011 25.4692 11.2872 25.4692C10.8737 25.4692 10.5383 25.1339 10.5383 24.7203V23.9711H8.2909C8.2909 24.3846 7.95553 24.7203 7.54198 24.7203C7.12809 24.7203 6.79272 24.3846 6.79272 23.9711V20.9747C6.79272 20.5608 7.12809 20.2255 7.54198 20.2255Z" fill="#E20E17"/>
<path d="M22.524 17.229C22.1101 17.229 21.7748 16.8936 21.7748 16.4801V15.7308H21.0255C20.612 15.7308 20.2766 15.3955 20.2766 14.9819C20.2766 14.568 20.612 14.2327 21.0255 14.2327H22.524C22.9376 14.2327 23.273 14.568 23.273 14.9819V16.4801C23.273 16.8936 22.9376 17.229 22.524 17.229Z" fill="#E20E17"/>
<path d="M18.0291 15.7308H16.5309V17.229H17.2802C17.6937 17.229 18.0291 17.5644 18.0291 17.9783C18.0291 18.3918 17.6937 18.7272 17.2802 18.7272H16.5309V19.4764C16.5309 19.89 16.1955 20.2253 15.782 20.2253C15.3681 20.2253 15.0327 19.89 15.0327 19.4764H14.2838C13.8699 19.4764 13.5346 19.1411 13.5346 18.7272C13.5346 18.3136 13.8699 17.9783 14.2838 17.9783H15.0327V15.7308H14.2838V16.4801C14.2838 16.8936 13.9484 17.229 13.5346 17.229C13.121 17.229 12.7856 16.8936 12.7856 16.4801V14.9819C12.7856 14.568 13.121 14.2327 13.5346 14.2327H18.0291C18.443 14.2327 18.7783 14.568 18.7783 14.9819C18.7783 15.3955 18.443 15.7308 18.0291 15.7308Z" fill="#E20E17"/>
<path d="M22.5239 24.7202C22.11 24.7202 21.7747 24.3845 21.7747 23.971V19.4764C21.7747 19.0626 22.11 18.7272 22.5239 18.7272C22.9375 18.7272 23.2728 19.0626 23.2728 19.4764V23.971C23.2728 24.3845 22.9375 24.7202 22.5239 24.7202Z" fill="#E20E17"/>
<path d="M18.0292 22.4729H18.7784V21.7236C18.7784 21.3101 19.1138 20.9747 19.5274 20.9747C19.9412 20.9747 20.2766 21.3101 20.2766 21.7236V23.2218C20.2766 23.6357 19.9412 23.9711 19.5274 23.9711V24.7203C19.5274 25.1339 19.192 25.4692 18.7784 25.4692C18.3646 25.4692 18.0292 25.1339 18.0292 24.7203V23.9711C17.6156 23.9711 17.2803 23.6357 17.2803 23.2218C17.2803 22.8083 17.6156 22.4729 18.0292 22.4729Z" fill="#E20E17"/>
<path d="M13.5346 25.4692H15.0327C15.4466 25.4692 15.782 25.8046 15.782 26.2185H16.5309C16.9448 26.2185 17.2802 26.5539 17.2802 26.9674C17.2802 27.3813 16.9448 27.7167 16.5309 27.7167H15.782C15.782 28.1302 15.4466 28.4656 15.0327 28.4656C14.6192 28.4656 14.2838 28.1302 14.2838 27.7167V26.9674H13.5346C13.121 26.9674 12.7856 26.632 12.7856 26.2185C12.7856 25.8046 13.121 25.4692 13.5346 25.4692Z" fill="#E20E17"/>
<path d="M14.2839 20.2254C14.2839 20.6392 13.9486 20.9746 13.5347 20.9746H12.0365C11.623 20.9746 11.2876 20.6392 11.2876 20.2254C11.2876 19.8118 11.623 19.4764 12.0365 19.4764H13.5347C13.9486 19.4764 14.2839 19.8118 14.2839 20.2254Z" fill="#E20E17"/>
<path d="M15.0327 23.2219V21.7238C15.0327 21.3102 15.3681 20.9749 15.782 20.9749C16.1955 20.9749 16.5309 21.3102 16.5309 21.7238V23.2219C16.5309 23.6358 16.1955 23.9712 15.782 23.9712C15.3681 23.9712 15.0327 23.6358 15.0327 23.2219Z" fill="#E20E17"/>
<path d="M21.0255 17.2291V18.7273C21.0255 19.1412 20.6901 19.4766 20.2766 19.4766C19.8627 19.4766 19.5273 19.1412 19.5273 18.7273V17.2291C19.5273 16.8156 19.8627 16.4802 20.2766 16.4802C20.6901 16.4802 21.0255 16.8156 21.0255 17.2291Z" fill="#E20E17"/>
<path d="M18.7784 20.9746H17.2803C16.8664 20.9746 16.531 20.6392 16.531 20.2254C16.531 19.8118 16.8664 19.4764 17.2803 19.4764H18.7784C19.192 19.4764 19.5273 19.8118 19.5273 20.2254C19.5273 20.6392 19.192 20.9746 18.7784 20.9746Z" fill="#E20E17"/>
</svg>

<svg width="30" height="45" viewBox="0 0 30 45" fill="none" xmlns="http://www.w3.org/2000/svg"><path d="M25.52 44.946H4.546A3.75 3.75 0 0 1 .8 41.2V3.746A3.75 3.75 0 0 1 4.546 0H25.52a3.75 3.75 0 0 1 3.746 3.746V41.2a3.75 3.75 0 0 1-3.746 3.746zM2.298 37.455h25.47V7.49H2.297v29.964zm2.248 5.993H25.52a2.247 2.247 0 0 0 2.247-2.248v-2.247H2.298V41.2a2.247 2.247 0 0 0 2.248 2.248zM25.52 1.498H4.546a2.247 2.247 0 0 0-2.248 2.248v2.247h25.47V3.746a2.247 2.247 0 0 0-2.248-2.248z" fill="#E20E17"/><path d="M15.782 4.495h-1.498a.749.749 0 1 1 0-1.499h1.498a.75.75 0 0 1 0 1.499zM5.295 40.451h1.498a.75.75 0 1 1 0 1.498H5.295a.75.75 0 0 1 0-1.498zm4.494 0h2.996a.75.75 0 1 1 0 1.498H9.79a.75.75 0 0 1 0-1.498zM7.542 26.218h2.996a.75.75 0 0 1 .75.75v2.996a.75.75 0 0 1-.75.749H7.542a.75.75 0 0 1-.75-.75v-2.996a.75.75 0 0 1 .75-.749zm.749 2.997h1.498v-1.498H8.291v1.498zm14.233 1.498h-2.997a.75.75 0 0 1-.749-.75v-2.996a.75.75 0 0 1 .75-.749h2.996a.75.75 0 0 1 .749.75v2.996a.75.75 0 0 1-.75.749zm-.75-2.997h-1.498v1.499h1.499v-1.498zm-11.236-8.989H7.542a.75.75 0 0 1-.75-.749v-2.996a.75.75 0 0 1 .75-.75h2.996a.75.75 0 0 1 .75.75v2.996a.749.749 0 0 1-.75.75zm-.749-2.996H8.291v1.498h1.498v-1.498zm3.746 13.484h2.996a.75.75 0 1 1 0 1.498h-2.996a.75.75 0 0 1 0-1.498zm-5.993-8.989c.414 0 .749.335.749.749v1.498h1.498v-.75a.75.75 0 0 1 1.498 0v.75h2.248a.749.749 0 1 1 0 1.498h-1.498v.75a.75.75 0 0 1-1.499 0v-.75H8.291a.75.75 0 0 1-1.498 0v-2.996a.75.75 0 0 1 .749-.75zm14.982-2.997a.749.749 0 0 1-.75-.749v-.75h-.748a.749.749 0 0 1 0-1.497h1.498a.75.75 0 0 1 .749.749v1.498a.75.75 0 0 1-.749.749zM18.03 15.73h-1.5v1.499h.75a.75.75 0 0 1 0 1.498h-.75v.75a.749.749 0 0 1-1.497 0h-.75a.749.749 0 1 1 0-1.499h.75v-2.247h-.75v.75a.75.75 0 0 1-1.497 0v-1.5a.75.75 0 0 1 .749-.748h4.494a.749.749 0 1 1 0 1.498zm4.494 8.99a.75.75 0 0 1-.75-.749v-4.495a.75.75 0 1 1 1.499 0v4.495a.75.75 0 0 1-.75.75zm-4.494-2.247h.748v-.75a.75.75 0 0 1 1.499 0v1.499a.75.75 0 0 1-.75.75v.748a.749.749 0 0 1-1.498 0v-.749a.75.75 0 0 1 0-1.498zm-4.495 2.997h1.498a.75.75 0 0 1 .749.748h.749a.75.75 0 1 1 0 1.499h-.749a.75.75 0 0 1-1.498 0v-.75h-.75a.75.75 0 0 1 0-1.498zm.749-5.245a.75.75 0 0 1-.75.75h-1.498a.75.75 0 0 1 0-1.499h1.499a.75.75 0 0 1 .749.75zm.749 2.997v-1.498a.75.75 0 0 1 1.498 0v1.498a.75.75 0 1 1-1.498 0zm5.993-5.992v1.497a.75.75 0 1 1-1.499 0V17.23a.75.75 0 0 1 1.498 0zm-2.248 3.745H17.28a.75.75 0 1 1 0-1.499h1.498a.749.749 0 0 1 0 1.499z" fill="#E20E17"/></svg>
